rospo-icon-theme-classic-common/16x16/apps/com.github.rickybas.date-countdown.svg

<svg height="16" viewBox="0 0 16 16" width="16" xmlns="http://www.w3.org/2000/svg"><path d="m7.5 0c-.8284271 0-1.5.67157288-1.5 1.5 0 .8284271.6715729 1.5 1.5 1.5.1773146 0 .3421041-.004823.5-.0195312v5.0195312h-5.0195312c.0147082-.1578959.0195312-.3226854.0195312-.5 0-.8284271-.6715729-1.5-1.5-1.5-.82842712 0-1.5.6715729-1.5 1.5 0 .1773146.00482298.3421041.01953125.5h-.01953125a8 8 0 0 0 8 8 8 8 0 0 0 8-8 8 8 0 0 0 -8-8v .01953125c-.1578959-.01470827-.3226854-.01953125-.5-.01953125z" fill="#4c91d9"/><circle cx="8" cy="8" fill="#fff" r="5"/></svg>

<svg xmlns="http://www.w3.org/2000/svg" width="16" height="16" version="1.1" viewBox="0 0 16 16">
 <path style="fill:#4c91d9" d="M 7.5 0 C 6.6715729 0 6 0.67157288 6 1.5 C 6 2.3284271 6.6715729 3 7.5 3 C 7.6773146 3 7.8421041 2.995177 8 2.9804688 L 8 8 L 2.9804688 8 C 2.995177 7.8421041 3 7.6773146 3 7.5 C 3 6.6715729 2.3284271 6 1.5 6 C 0.67157288 6 0 6.6715729 0 7.5 C 0 7.6773146 0.0048229768 7.8421041 0.01953125 8 L 0 8 A 8 8 0 0 0 8 16 A 8 8 0 0 0 16 8 A 8 8 0 0 0 8 0 L 8 0.01953125 C 7.8421041 0.0048229768 7.6773146 2.4733289e-34 7.5 0 z"/>
 <circle style="fill:#ffffff" cx="8" cy="8" r="5"/>
</svg>
